static/fa/svgs/solid/hill-avalanche.svg

<svg xmlns="http://www.w3.org/2000/svg" viewBox="0 0 640 512"><!--! Font Awesome Free 6.1.1 by @fontawesome - https://fontawesome.com License - https://fontawesome.com/license/free (Icons: CC BY 4.0, Fonts: SIL OFL 1.1, Code: MIT License) Copyright 2022 Fonticons, Inc.--><path d="M161.4 91.58c-.9-3.71-1.4-7.59-1.4-11.58 0-26.51 21.5-48 48-48 21.9 0 40.3 14.62 46.1 34.62C268.5 45.7 292.7 32 320 32c44.2 0 80 35.82 80 80 0 7.4-1.9 14.6-2.9 21.5 29.8 11.6 50.9 40.6 50.9 74.5 0 28.4-14.8 53.3-37.1 67.5l81.7 81.7c15.6 15.6 41 15.6 56.6 0 15.6-15.6 15.6-41 0-56.6-15.6-16.5-41-16.5-56.6 0l-33.9-33.9c34.3-34.4 90.1-34.4 124.4 0 34.4 34.3 34.4 90.1 0 124.4-30.3 30.3-77.2 33.9-111.4 10.8L161.4 91.58zM512 64c0 17.67-14.3 32-32 32s-32-14.33-32-32 14.3-32 32-32 32 14.33 32 32zm-32 96c0-17.7 14.3-32 32-32s32 14.3 32 32-14.3 32-32 32-32-14.3-32-32zm-23.9 283.7c26.1 25.2 8.2 68.3-27.4 68.3H112c-44.18 0-80-35.8-80-80V115.3c0-35.62 43.09-53.47 68.3-28.27L456.1 443.7z"/></svg>

<svg xmlns="http://www.w3.org/2000/svg" viewBox="0 0 640 512"><!--! Font Awesome Free 6.1.1 by @fontawesome - https://fontawesome.com License - https://fontawesome.com/license/free (Icons: CC BY 4.0, Fonts: SIL OFL 1.1, Code: MIT License) Copyright 2022 Fonticons, Inc. --><path d="M161.4 91.58C160.5 87.87 160 83.99 160 80C160 53.49 181.5 32 208 32C229.9 32 248.3 46.62 254.1 66.62C268.5 45.7 292.7 32 320 32C364.2 32 400 67.82 400 112C400 119.4 398.1 126.6 397.1 133.5C426.9 145.1 448 174.1 448 208C448 236.4 433.2 261.3 410.9 275.5L492.6 357.2C508.2 372.8 533.6 372.8 549.2 357.2C564.8 341.6 564.8 316.2 549.2 300.6C533.6 284.1 508.2 284.1 492.6 300.6L458.7 266.7C493 232.3 548.8 232.3 583.1 266.7C617.5 301 617.5 356.8 583.1 391.1C552.8 421.4 505.9 425 471.7 401.9L161.4 91.58zM512 64C512 81.67 497.7 96 480 96C462.3 96 448 81.67 448 64C448 46.33 462.3 32 480 32C497.7 32 512 46.33 512 64zM480 160C480 142.3 494.3 128 512 128C529.7 128 544 142.3 544 160C544 177.7 529.7 192 512 192C494.3 192 480 177.7 480 160zM456.1 443.7C482.2 468.9 464.3 512 428.7 512H112C67.82 512 32 476.2 32 432V115.3C32 79.68 75.09 61.83 100.3 87.03L456.1 443.7z"/></svg>
